X: 29739
T: Nyth Y Gog
R: hornpipe
M: 4/4
K: Gmajor
|:EF|GFGF E2 ge|dBAG FAGF|GFGA BABc|d2 A2 A2 F2|
GFGF E2 ge|dBAG FAGF|GFGA BcBA|G2 E2 E2:|
|:B2|e^def egfe|d2 B2 B2 BA|GBdB GBdB|c2 A2 A2 B2|
e^def egfe|d2 B2 B2 BA|GFGA BcBA|G2 E2 E2:|
|:GA|BGEG BGEG|BGBG E2 FG|AFDF AFDF|AFAF D2 EF|
GFGF E2 ge|dBAG FAGF|GFGA BcBA|G2 E2 E2:|

